X: 1
T: Woo'd and Married and A'   [F]
R: slip-jig
Z: Betsy Hooper
M: 9/8
L: 1/8
K: F
f | "F"c2B ABG F2B | "F"A{B}cc "C"cdA "F"c2f | "F"c2B ABG FGA | "Dm"D2d "A"de^c "Dm"d2 :|
f | "F"cde fgf edc | "F"A{B}cc "C"cdA "F"c2d | "F"cde fgf edc | "Dm"A2d "A"de^c "Dm"d2 ||
f | "F"cde fga "C"efg | "Am"A{B}cA "Bb"fcA "C"c2f | "F"c>dB ABG FGA | "Dm"D2d "A"de^c "Dm"d2 |]
